app/img/svg-icons/check.svg

<svg width="30" height="22" viewBox="0 0 30 22" fill="none" xmlns="http://www.w3.org/2000/svg">
<path fill-rule="evenodd" clip-rule="evenodd" d="M10.7475 21.8558C10.3727 21.8558 10.0132 21.6954 9.74804 21.41L1.26587 12.2705C0.713715 11.6758 0.713715 10.7116 1.26587 10.1174C1.81789 9.52174 2.71302 9.52174 3.26504 10.1174L10.7475 18.1787L26.7124 0.978809C27.2642 0.383662 28.1596 0.383662 28.7114 0.978809C29.2637 1.573 29.2637 2.5372 28.7114 3.13185L11.747 21.41C11.4821 21.6954 11.1224 21.8558 10.7475 21.8558Z" fill="white"/>
</svg>

<svg width="30" height="22" fill="none" xmlns="http://www.w3.org/2000/svg"><path fill-rule="evenodd" clip-rule="evenodd" d="M10.748 21.856c-.375 0-.735-.16-1-.446l-8.482-9.14a1.606 1.606 0 010-2.153 1.342 1.342 0 011.999 0l7.482 8.062L26.712.979a1.342 1.342 0 012 0 1.606 1.606 0 010 2.153L11.746 21.41a1.364 1.364 0 01-1 .446z" fill="#fff"/></svg>
